icon-themes/sifr_svg/cmd/sc_toggletabbarvisibility.svg

<svg viewBox="0 0 16 16" xmlns="http://www.w3.org/2000/svg"><path d="m1 2v12h14v-9h-2-5v-1-2zm8 0v2h6v-2zm-6 2h3v1 2h7v5h-10z" fill="#555753"/></svg>

<svg xmlns="http://www.w3.org/2000/svg" viewBox="0 0 16 16">
  <path
     style="fill:#555753"
     d="M 1 2 L 1 14 L 15 14 L 15 5 L 13 5 L 8 5 L 8 4 L 8 2 L 1 2 z M 9 2 L 9 4 L 15 4 L 15 2 L 9 2 z M 3 4 L 6 4 L 6 5 L 6 7 L 13 7 L 13 12 L 3 12 L 3 4 z "
     />
</svg>
